; generated by Slic3r 0.9.10b on 2013-10-14 at 22:19:21

; layer_height = 0.4
; perimeters = 3
; top_solid_layers = 2
; bottom_solid_layers = 2
; fill_density = 0.1
; perimeter_speed = 30
; infill_speed = 60
; travel_speed = 130
; nozzle_diameter = 0.5
; filament_diameter = 1.75
; extrusion_multiplier = 1
; perimeters extrusion width = 0.53mm
; infill extrusion width = 0.53mm
; solid infill extrusion width = 0.53mm
; top infill extrusion width = 0.53mm
; support material extrusion width = 0.53mm
; first layer extrusion width = 0.70mm

G21 ; set units to millimeters
M106 S0
M140 S130 ; set bed temperature
M116 ; wait for bed temperature to be reached
M104 S220 ; set temperature
G28 ; home all axes
G1 Z5 F5000 ; lift nozzle
M104 S220 ; set temperature
M116 ; wait for temperature to be reached
G90 ; use absolute coordinates
G92 E0
M82 ; use absolute distances for extrusion
G1 F1800.000 E-1.00000
G92 E0
G1 Z0.350 F7800.000
M106 S255
M140 S120 ; set bed temperature
G1 Z0.750
G1 X106.114 Y106.114
G1 F1800.000 E1.00000
G1 X119.780 Y119.780 F600.000 E2.67018
G1 F1800.000 E1.67018
G92 E0
G1 X106.114 Y106.114 F7800.000
G1 F1800.000 E1.00000
G1 X100.748 Y100.748 F600.000 E1.65582
G1 X100.748 Y100.748 F7800.000
G1 X100.193 Y100.193 F600.000 E1.72367
G1 X100.193 Y100.193 F7800.000
G1 X100.000 Y100.000 F600.000 E1.74720
G1 X100.000 Y100.000 F7800.000
G1 X85.559 Y114.441 F600.000 E3.51205
G1 X85.559 Y114.441 F7800.000
G1 X82.783 Y117.217 F600.000 E3.85127
G1 X82.783 Y117.217 F7800.000
G1 X82.413 Y117.587 F600.000 E3.89650
G1 X82.413 Y117.587 F7800.000
G1 X80.563 Y119.437 F600.000 E4.12264
G1 X80.563 Y119.437 F7800.000
G1 X80.220 Y119.780 F600.000 E4.16457
G1 F1800.000 E3.16457
G92 E0
G1 X86.114 Y86.114 F7800.000
G1 F1800.000 E1.00000
G1 X85.559 Y85.559 F600.000 E1.06784
G1 X85.559 Y85.559 F7800.000
G1 X83.523 Y83.523 F600.000 E1.31660
G1 X83.523 Y83.523 F7800.000
G1 X81.673 Y81.673 F600.000 E1.54275
G1 X81.673 Y81.673 F7800.000
G1 X80.933 Y80.933 F600.000 E1.63321
G1 X80.933 Y80.933 F7800.000
G1 X80.748 Y80.748 F600.000 E1.65582
G1 X80.748 Y80.748 F7800.000
G1 X80.563 Y80.563 F600.000 E1.67844
G1 X80.563 Y80.563 F7800.000
G1 X80.378 Y80.378 F600.000 E1.70105
G1 X80.378 Y80.378 F7800.000
G1 X80.220 Y80.220 F600.000 E1.72036
G1 F1800.000 E0.72036
G92 E0
G1 X86.114 Y86.114 F7800.000
G1 F1800.000 E1.00000
G1 X100.000 Y100.000 F600.000 E2.69701
G1 X119.780 Y80.220 E5.11438
G1 F1800.000 E4.11438
G92 E0
G1 Z1.150 F7800.000
G1 X106.490 Y106.490
G1 F1800.000 E1.00000
G1 X119.393 Y119.393 F600.000 E2.57699
G1 X119.561 Y119.411 E2.59153
G1 X119.393 Y119.393 F7800.000
G1 X119.387 Y119.459 F600.000 E2.59723
G1 X119.387 Y119.459 F7800.000
G1 X119.411 Y119.561 F600.000 E2.60627
G1 X106.490 Y106.490 F7800.000
G1 X101.131 Y101.131 F600.000 E3.26109
G1 X101.131 Y101.131 F7800.000
G1 X100.577 Y100.577 F600.000 E3.32883
G1 X100.577 Y100.577 F7800.000
G1 X100.392 Y100.392 F600.000 E3.35141
G1 X100.392 Y100.392 F7800.000
G1 X100.000 Y100.000 F600.000 E3.39936
G1 X100.000 Y100.000 F7800.000
G1 X85.196 Y114.804 F600.000 E5.20854
G1 X85.196 Y114.804 F7800.000
G1 X82.425 Y117.575 F600.000 E5.54723
G1 X82.425 Y117.575 F7800.000
G1 X82.055 Y117.945 F600.000 E5.59239
G1 X82.055 Y117.945 F7800.000
G1 X80.762 Y119.238 F600.000 E5.75045
G1 X80.762 Y119.238 F7800.000
G1 X80.762 Y119.238 F1800.000
G1 X80.762 Y119.238 F7800.000
G1 X80.439 Y119.411 F600.000 E5.78209
G1 X80.607 Y119.393 F7800.000
G1 X80.589 Y119.561 F600.000 E5.79663
G1 F1800.000 E4.79663
G92 E0
G1 X86.120 Y86.120 F7800.000
G1 F1800.000 E1.00000
G1 X85.566 Y85.566 F600.000 E1.06774
G1 X85.566 Y85.566 F7800.000
G1 X83.533 Y83.533 F600.000 E1.31612
G1 X83.533 Y83.533 F7800.000
G1 X81.686 Y81.686 F600.000 E1.54191
G1 X81.686 Y81.686 F7800.000
G1 X80.947 Y80.947 F600.000 E1.63223
G1 X80.947 Y80.947 F7800.000
G1 X80.762 Y80.762 F600.000 E1.65481
G1 X80.762 Y80.762 F7800.000
G1 X80.762 Y80.762 F1800.000
G1 X80.762 Y80.762 F7800.000
G1 X80.607 Y80.607 F600.000 E1.67380
G1 X80.439 Y80.589 F7800.000
G1 X80.607 Y80.607 F600.000 E1.68834
G1 X80.589 Y80.439 E1.70289
G1 X86.120 Y86.120 F7800.000
G1 X100.000 Y100.000 F600.000 E3.39916
G1 X119.393 Y80.607 E5.76924
G1 X119.411 Y80.439 E5.78378
G1 X119.393 Y80.607 F7800.000
G1 X119.561 Y80.589 F600.000 E5.79832
G1 F1800.000 E4.79832
G92 E0
G1 Z1.550 F7800.000
G1 X119.633 Y81.000
G1 F1800.000 E1.00000
G1 X100.633 Y100.000 F618.545 E3.32199
G1 X119.633 Y119.000 E5.64399
G1 X119.000 Y119.633 E5.72129
G1 X100.000 Y100.633 E8.04329
G1 X81.000 Y119.633 E10.36528
G1 X80.367 Y119.000 E10.44258
G1 X99.367 Y100.000 E12.76458
G1 X80.367 Y81.000 E15.08657
G1 X81.000 Y80.367 E15.16388
G1 X100.000 Y99.367 E17.48587
G1 X119.000 Y80.367 E19.80786
G1 X119.577 Y80.945 E19.87843
G1 X119.131 Y81.134 F7800.000
G1 F1800.000 E18.87843
G92 E0
G1 X119.058 Y118.941 F7800.000
G1 F1800.000 E1.00000
G1 X118.941 Y119.058 F600.000 E1.00750
G1 X118.748 Y118.865 E1.01990
G1 X118.865 Y118.748 E1.02739
G1 X118.672 Y118.555 E1.03979
G1 X118.555 Y118.672 E1.04729
G1 X118.362 Y118.479 E1.05969
G1 X118.479 Y118.362 E1.06719
G1 X118.286 Y118.169 E1.07958
G1 X118.169 Y118.286 E1.08708
G1 X117.976 Y118.092 E1.09948
G1 X118.092 Y117.976 E1.10698
G1 X117.899 Y117.783 E1.11938
G1 X117.783 Y117.899 E1.12688
G1 X117.590 Y117.706 E1.13927
G1 X117.706 Y117.590 E1.14677
G1 X117.513 Y117.397 E1.15917
G1 X117.397 Y117.513 E1.16667
G1 X117.203 Y117.320 E1.17907
G1 X117.320 Y117.203 E1.18656
G1 X117.127 Y117.010 E1.19896
G1 X117.010 Y117.127 E1.20646
G1 X116.817 Y116.934 E1.21886
G1 X116.934 Y116.817 E1.22636
G1 X116.741 Y116.624 E1.23875
G1 X116.624 Y116.741 E1.24625
G1 X116.431 Y116.548 E1.25865
G1 X116.548 Y116.431 E1.26615
G1 X116.355 Y116.238 E1.27855
G1 X116.238 Y116.355 E1.28604
G1 X116.045 Y116.162 E1.29844
G1 X116.162 Y116.045 E1.30594
G1 X115.969 Y115.852 E1.31834
G1 X115.852 Y115.969 E1.32584
G1 X115.659 Y115.776 E1.33823
G1 X115.776 Y115.659 E1.34573
G1 X115.583 Y115.466 E1.35813
G1 X115.466 Y115.583 E1.36563
G1 X115.273 Y115.390 E1.37803
G1 X115.390 Y115.273 E1.38553
G1 X115.196 Y115.080 E1.39792
G1 X115.080 Y115.196 E1.40542
G1 X114.887 Y115.003 E1.41782
G1 X115.003 Y114.887 E1.42532
G1 X114.810 Y114.694 E1.43772
G1 X114.694 Y114.810 E1.44521
G1 X114.501 Y114.617 E1.45761
G1 X114.617 Y114.501 E1.46511
G1 X114.424 Y114.307 E1.47751
G1 X114.307 Y114.424 E1.48501
G1 X114.114 Y114.231 E1.49740
G1 X114.231 Y114.114 E1.50490
G1 X114.038 Y113.921 E1.51730
G1 X113.921 Y114.038 E1.52480
G1 X113.728 Y113.845 E1.53720
G1 X113.845 Y113.728 E1.54469
G1 X113.652 Y113.535 E1.55709
G1 X113.535 Y113.652 E1.56459
G1 X113.342 Y113.459 E1.57699
G1 X113.459 Y113.342 E1.58449
G1 X113.266 Y113.149 E1.59688
G1 X113.149 Y113.266 E1.60438
G1 X112.956 Y113.073 E1.61678
G1 X113.073 Y112.956 E1.62428
G1 X112.880 Y112.763 E1.63668
G1 X112.763 Y112.880 E1.64418
G1 X112.570 Y112.687 E1.65657
G1 X112.687 Y112.570 E1.66407
G1 X112.494 Y112.377 E1.67647
G1 X112.377 Y112.494 E1.68397
G1 X112.184 Y112.300 E1.69637
G1 X112.300 Y112.184 E1.70386
G1 X112.107 Y111.991 E1.71626
G1 X111.991 Y112.107 E1.72376
G1 X111.798 Y111.914 E1.73616
G1 X111.914 Y111.798 E1.74366
G1 X111.721 Y111.605 E1.75605
G1 X111.605 Y111.721 E1.76355
G1 X111.411 Y111.528 E1.77595
G1 X111.528 Y111.411 E1.78345
G1 X111.335 Y111.218 E1.79585
G1 X111.218 Y111.335 E1.80335
G1 X111.025 Y111.142 E1.81574
G1 X111.142 Y111.025 E1.82324
G1 X110.949 Y110.832 E1.83564
G1 X110.832 Y110.949 E1.84314
G1 X110.639 Y110.756 E1.85554
G1 X110.756 Y110.639 E1.86303
G1 X110.563 Y110.446 E1.87543
G1 X110.446 Y110.563 E1.88293
G1 X110.253 Y110.370 E1.89533
G1 X110.370 Y110.253 E1.90283
G1 X110.177 Y110.060 E1.91522
G1 X110.060 Y110.177 E1.92272
G1 X109.867 Y109.984 E1.93512
G1 X109.984 Y109.867 E1.94262
G1 X109.791 Y109.674 E1.95502
G1 X109.674 Y109.791 E1.96251
G1 X109.481 Y109.598 E1.97491
G1 X109.598 Y109.481 E1.98241
G1 X109.404 Y109.288 E1.99481
G1 X109.288 Y109.404 E2.00231
G1 X109.095 Y109.211 E2.01470
G1 X109.211 Y109.095 E2.02220
G1 X109.018 Y108.902 E2.03460
G1 X108.902 Y109.018 E2.04210
G1 X108.708 Y108.825 E2.05450
G1 X108.825 Y108.708 E2.06200
G1 X108.632 Y108.515 E2.07439
G1 X108.515 Y108.632 E2.08189
G1 X108.322 Y108.439 E2.09429
G1 X108.439 Y108.322 E2.10179
G1 X108.246 Y108.129 E2.11419
G1 X108.129 Y108.246 E2.12168
G1 X107.936 Y108.053 E2.13408
G1 X108.053 Y107.936 E2.14158
G1 X107.860 Y107.743 E2.15398
G1 X107.743 Y107.860 E2.16148
G1 X107.550 Y107.667 E2.17387
G1 X107.667 Y107.550 E2.18137
G1 X107.474 Y107.357 E2.19377
G1 X107.357 Y107.474 E2.20127
G1 X107.164 Y107.281 E2.21367
G1 X107.281 Y107.164 E2.22117
G1 X107.088 Y106.971 E2.23356
G1 X106.971 Y107.088 E2.24106
G1 X106.778 Y106.895 E2.25346
G1 X106.895 Y106.778 E2.26096
G1 X106.702 Y106.585 E2.27336
G1 X106.585 Y106.702 E2.28085
G1 X106.392 Y106.508 E2.29325
G1 X106.508 Y106.392 E2.30075
G1 X106.315 Y106.199 E2.31315
G1 X106.199 Y106.315 E2.32065
G1 X106.006 Y106.122 E2.33304
G1 X106.122 Y106.006 E2.34054
G1 X105.929 Y105.812 E2.35294
G1 X105.812 Y105.929 E2.36044
G1 X105.619 Y105.736 E2.37284
G1 X105.736 Y105.619 E2.38033
G1 X105.543 Y105.426 E2.39273
G1 X105.426 Y105.543 E2.40023
G1 X105.233 Y105.350 E2.41263
G1 X105.350 Y105.233 E2.42013
G1 X105.157 Y105.040 E2.43252
G1 X105.040 Y105.157 E2.44002
G1 X104.847 Y104.964 E2.45242
G1 X104.964 Y104.847 E2.45992
G1 X104.771 Y104.654 E2.47232
G1 X104.654 Y104.771 E2.47982
G1 X104.461 Y104.578 E2.49221
G1 X104.578 Y104.461 E2.49971
G1 X104.385 Y104.268 E2.51211
G1 X104.268 Y104.385 E2.51961
G1 X104.075 Y104.192 E2.53201
G1 X104.192 Y104.075 E2.53950
G1 X103.999 Y103.882 E2.55190
G1 X103.882 Y103.999 E2.55940
G1 X103.689 Y103.806 E2.57180
G1 X103.806 Y103.689 E2.57930
G1 X103.612 Y103.496 E2.59169
G1 X103.496 Y103.612 E2.59919
G1 X103.303 Y103.419 E2.61159
G1 X103.419 Y103.303 E2.61909
G1 X103.226 Y103.110 E2.63149
G1 X103.110 Y103.226 E2.63899
G1 X102.916 Y103.033 E2.65138
G1 X103.033 Y102.916 E2.65888
G1 X102.840 Y102.723 E2.67128
G1 X102.723 Y102.840 E2.67878
G1 X102.530 Y102.647 E2.69118
G1 X102.647 Y102.530 E2.69867
G1 X102.454 Y102.337 E2.71107
G1 X102.337 Y102.454 E2.71857
G1 X102.144 Y102.261 E2.73097
G1 X102.261 Y102.144 E2.73847
G1 X102.068 Y101.951 E2.75086
G1 X101.951 Y102.068 E2.75836
G1 X101.758 Y101.875 E2.77076
G1 X101.875 Y101.758 E2.77826
G1 X101.682 Y101.565 E2.79066
G1 X101.565 Y101.682 E2.79816
G1 X101.372 Y101.489 E2.81055
G1 X101.489 Y101.372 E2.81805
G1 X101.296 Y101.179 E2.83045
G1 X101.179 Y101.296 E2.83795
G1 X100.986 Y101.103 E2.85035
G1 X101.103 Y100.986 E2.85784
G1 X100.910 Y100.793 E2.87024
G1 X100.793 Y100.910 E2.87774
G1 X100.600 Y100.716 E2.89014
G1 X100.716 Y100.600 E2.89764
G1 X100.523 Y100.407 E2.91003
G1 X100.407 Y100.523 E2.91753
G1 X100.214 Y100.330 E2.92993
G1 X100.330 Y100.214 E2.93743
G1 X100.137 Y100.020 E2.94983
G1 X100.020 Y100.137 E2.95733
G1 X99.827 Y99.944 E2.96972
G1 X99.944 Y99.827 E2.97722
G1 X99.751 Y99.634 E2.98962
G1 X99.634 Y99.751 E2.99712
G1 X99.441 Y99.558 E3.00952
G1 X99.558 Y99.441 E3.01701
G1 X99.365 Y99.248 E3.02941
G1 X99.248 Y99.365 E3.03691
G1 X99.055 Y99.172 E3.04931
G1 X99.172 Y99.055 E3.05681
G1 X98.979 Y98.862 E3.06921
G1 X98.862 Y98.979 E3.07670
G1 X98.669 Y98.786 E3.08910
G1 X98.786 Y98.669 E3.09660
G1 X98.593 Y98.476 E3.10900
G1 X98.476 Y98.593 E3.11650
G1 X98.283 Y98.400 E3.12889
G1 X98.400 Y98.283 E3.13639
G1 X98.207 Y98.090 E3.14879
G1 X98.090 Y98.207 E3.15629
G1 X97.897 Y98.014 E3.16869
G1 X98.014 Y97.897 E3.17619
G1 X97.820 Y97.704 E3.18858
G1 X97.704 Y97.820 E3.19608
G1 X97.511 Y97.627 E3.20848
G1 X97.627 Y97.511 E3.21598
G1 X97.434 Y97.318 E3.22838
G1 X97.318 Y97.434 E3.23588
G1 X97.124 Y97.241 E3.24827
G1 X97.241 Y97.124 E3.25577
G1 X97.048 Y96.931 E3.26817
G1 X96.931 Y97.048 E3.27567
G1 X96.738 Y96.855 E3.28807
G1 X96.855 Y96.738 E3.29557
G1 X96.662 Y96.545 E3.30796
G1 X96.545 Y96.662 E3.31546
G1 X96.352 Y96.469 E3.32786
G1 X96.469 Y96.352 E3.33536
G1 X96.276 Y96.159 E3.34776
G1 X96.159 Y96.276 E3.35525
G1 X95.966 Y96.083 E3.36765
G1 X96.083 Y95.966 E3.37515
G1 X95.890 Y95.773 E3.38755
G1 X95.773 Y95.890 E3.39505
G1 X95.580 Y95.697 E3.40745
G1 X95.697 Y95.580 E3.41494
G1 X95.504 Y95.387 E3.42734
G1 X95.387 Y95.504 E3.43484
G1 X95.194 Y95.311 E3.44724
G1 X95.311 Y95.194 E3.45474
G1 X95.118 Y95.001 E3.46714
G1 X95.001 Y95.118 E3.47463
G1 X94.808 Y94.924 E3.48703
G1 X94.924 Y94.808 E3.49453
G1 X94.731 Y94.615 E3.50693
G1 X94.615 Y94.731 E3.51443
G1 X94.422 Y94.538 E3.52682
G1 X94.538 Y94.422 E3.53432
G1 X94.345 Y94.228 E3.54672
G1 X94.228 Y94.345 E3.55422
G1 X94.035 Y94.152 E3.56662
G1 X94.152 Y94.035 E3.57412
G1 X93.959 Y93.842 E3.58651
G1 X93.842 Y93.959 E3.59401
G1 X93.649 Y93.766 E3.60641
G1 X93.766 Y93.649 E3.61391
G1 X93.573 Y93.456 E3.62631
G1 X93.456 Y93.573 E3.63381
G1 X93.263 Y93.380 E3.64620
G1 X93.380 Y93.263 E3.65370
G1 X93.187 Y93.070 E3.66610
G1 X93.070 Y93.187 E3.67360
G1 X92.877 Y92.994 E3.68600
G1 X92.994 Y92.877 E3.69350
G1 X92.801 Y92.684 E3.70589
G1 X92.684 Y92.801 E3.71339
G1 X92.491 Y92.608 E3.72579
G1 X92.608 Y92.491 E3.73329
G1 X92.415 Y92.298 E3.74569
G1 X92.298 Y92.415 E3.75318
G1 X92.105 Y92.222 E3.76558
G1 X92.222 Y92.105 E3.77308
G1 X92.028 Y91.912 E3.78548
G1 X91.912 Y92.028 E3.79298
G1 X91.719 Y91.835 E3.80538
G1 X91.835 Y91.719 E3.81287
G1 X91.642 Y91.526 E3.82527
G1 X91.526 Y91.642 E3.83277
G1 X91.332 Y91.449 E3.84517
G1 X91.449 Y91.332 E3.85267
G1 X91.256 Y91.139 E3.86506
G1 X91.139 Y91.256 E3.87256
G1 X90.946 Y91.063 E3.88496
G1 X91.063 Y90.946 E3.89246
G1 X90.870 Y90.753 E3.90486
G1 X90.753 Y90.870 E3.91236
G1 X90.560 Y90.677 E3.92475
G1 X90.677 Y90.560 E3.93225
G1 X90.484 Y90.367 E3.94465
G1 X90.367 Y90.484 E3.95215
G1 X90.174 Y90.291 E3.96455
G1 X90.291 Y90.174 E3.97205
G1 X90.098 Y89.981 E3.98444
G1 X89.981 Y90.098 E3.99194
G1 X89.788 Y89.905 E4.00434
G1 X89.905 Y89.788 E4.01184
G1 X89.712 Y89.595 E4.02424
G1 X89.595 Y89.712 E4.03173
G1 X89.402 Y89.519 E4.04413
G1 X89.519 Y89.402 E4.05163
G1 X89.325 Y89.209 E4.06403
G1 X89.209 Y89.325 E4.07153
G1 X89.016 Y89.132 E4.08393
G1 X89.132 Y89.016 E4.09142
G1 X88.939 Y88.823 E4.10382
G1 X88.823 Y88.939 E4.11132
G1 X88.630 Y88.746 E4.12372
G1 X88.746 Y88.630 E4.13122
G1 X88.553 Y88.436 E4.14361
G1 X88.436 Y88.553 E4.15111
G1 X88.243 Y88.360 E4.16351
G1 X88.360 Y88.243 E4.17101
G1 X88.167 Y88.050 E4.18341
G1 X88.050 Y88.167 E4.19091
G1 X87.857 Y87.974 E4.20330
G1 X87.974 Y87.857 E4.21080
G1 X87.781 Y87.664 E4.22320
G1 X87.664 Y87.781 E4.23070
G1 X87.471 Y87.588 E4.24310
G1 X87.588 Y87.471 E4.25060
G1 X87.395 Y87.278 E4.26299
G1 X87.278 Y87.395 E4.27049
G1 X87.085 Y87.202 E4.28289
G1 X87.202 Y87.085 E4.29039
G1 X87.009 Y86.892 E4.30279
G1 X86.892 Y87.009 E4.31029
G1 X86.699 Y86.816 E4.32268
G1 X86.816 Y86.699 E4.33018
G1 X86.623 Y86.506 E4.34258
G1 X86.506 Y86.623 E4.35008
G1 X86.313 Y86.429 E4.36248
G1 X86.429 Y86.313 E4.36997
G1 X86.236 Y86.120 E4.38237
G1 X86.120 Y86.236 E4.38987
G1 X85.927 Y86.043 E4.40227
G1 X86.043 Y85.927 E4.40977
G1 X85.850 Y85.734 E4.42217
G1 X85.734 Y85.850 E4.42966
G1 X85.540 Y85.657 E4.44206
G1 X85.657 Y85.540 E4.44956
G1 X85.464 Y85.347 E4.46196
G1 X85.347 Y85.464 E4.46946
G1 X85.154 Y85.271 E4.48185
G1 X85.271 Y85.154 E4.48935
G1 X85.078 Y84.961 E4.50175
G1 X84.961 Y85.078 E4.50925
G1 X84.768 Y84.885 E4.52165
G1 X84.885 Y84.768 E4.52915
G1 X84.692 Y84.575 E4.54154
G1 X84.575 Y84.692 E4.54904
G1 X84.382 Y84.499 E4.56144
G1 X84.499 Y84.382 E4.56894
G1 X84.306 Y84.189 E4.58134
G1 X84.189 Y84.306 E4.58884
G1 X83.996 Y84.113 E4.60123
G1 X84.113 Y83.996 E4.60873
G1 X83.920 Y83.803 E4.62113
G1 X83.803 Y83.920 E4.62863
G1 X83.610 Y83.727 E4.64103
G1 X83.727 Y83.610 E4.64852
G1 X83.533 Y83.417 E4.66092
G1 X83.417 Y83.533 E4.66842
G1 X83.224 Y83.340 E4.68082
G1 X83.340 Y83.224 E4.68832
G1 X83.147 Y83.031 E4.70072
G1 X83.031 Y83.147 E4.70821
G1 X82.838 Y82.954 E4.72061
G1 X82.954 Y82.838 E4.72811
G1 X82.761 Y82.644 E4.74051
G1 X82.644 Y82.761 E4.74801
G1 X82.451 Y82.568 E4.76040
G1 X82.568 Y82.451 E4.76790
G1 X82.375 Y82.258 E4.78030
G1 X82.258 Y82.375 E4.78780
G1 X82.065 Y82.182 E4.80020
G1 X82.182 Y82.065 E4.80770
G1 X81.989 Y81.872 E4.82009
G1 X81.872 Y81.989 E4.82759
