; generated by Slic3r 0.9.10b on 2013-10-14 at 22:04:13

; layer_height = 0.4
; perimeters = 3
; top_solid_layers = 2
; bottom_solid_layers = 2
; fill_density = 0.1
; perimeter_speed = 30
; infill_speed = 60
; travel_speed = 130
; nozzle_diameter = 0.5
; filament_diameter = 1.75
; extrusion_multiplier = 1
; perimeters extrusion width = 0.53mm
; infill extrusion width = 0.53mm
; solid infill extrusion width = 0.53mm
; top infill extrusion width = 0.53mm
; support material extrusion width = 0.53mm
; first layer extrusion width = 0.70mm

G21 ; set units to millimeters
M106 S0
M140 S130 ; set bed temperature
M116 ; wait for bed temperature to be reached
M104 S220 ; set temperature
G28 ; home all axes
G1 Z5 F5000 ; lift nozzle
M104 S220 ; set temperature
M116 ; wait for temperature to be reached
G90 ; use absolute coordinates
G92 E0
M82 ; use absolute distances for extrusion
G1 F1800.000 E-1.00000
G92 E0
G1 Z0.350 F7800.000
G1 X85.290 Y85.970
G1 F1800.000 E1.00000
G1 X86.300 Y85.140 F540.000 E1.12499
G1 X87.450 Y84.530 E1.24946
G1 X88.700 Y84.150 E1.37438
G1 X90.000 Y84.020 E1.49930
G1 X110.280 Y84.020 E3.43834
G1 X111.570 Y84.150 E3.56231
G1 X112.800 Y84.520 E3.68512
G1 X113.950 Y85.120 E3.80914
G1 X114.950 Y85.940 E3.93279
G1 X115.780 Y86.930 E4.05631
G1 X116.400 Y88.060 E4.17955
G1 X116.790 Y89.290 E4.30293
G1 X116.940 Y90.580 E4.42710
G1 X117.000 Y94.520 E4.80386
G1 X117.000 Y107.770 E6.07074
G1 X116.930 Y109.380 E6.22483
G1 X116.750 Y110.640 E6.34652
G1 X116.340 Y111.840 E6.46777
G1 X115.710 Y112.940 E6.58897
G1 X114.880 Y113.890 E6.70959
G1 X113.880 Y114.680 E6.83144
G1 X112.760 Y115.260 E6.95204
G1 X111.540 Y115.620 E7.07366
G1 X110.280 Y115.740 E7.19468
G1 X90.000 Y115.740 E9.13372
G1 X88.700 Y115.610 E9.25864
G1 X87.450 Y115.230 E9.38356
G1 X86.300 Y114.620 E9.50802
G1 X85.290 Y113.790 E9.63302
G1 X84.460 Y112.780 E9.75801
G1 X83.850 Y111.630 E9.88248
G1 X83.470 Y110.380 E10.00740
G1 X83.340 Y109.080 E10.13231
G1 X83.340 Y90.680 E11.89161
G1 X83.470 Y89.380 E12.01652
G1 X83.850 Y88.130 E12.14144
G1 X84.460 Y86.980 E12.26591
G1 X85.227 Y86.046 E12.38148
G1 F1800.000 E11.38148
G92 E0
G1 X90.000 Y90.687 F7800.000
G1 F1800.000 E1.00000
G1 X110.284 Y90.687 F1080.000 E2.93947
G1 X110.172 Y92.001 E3.06558
G1 X90.000 Y92.001 E4.99434
G1 X90.000 Y93.315 E5.11999
G1 X110.287 Y93.315 E7.05967
G1 X110.342 Y94.629 E7.18543
G1 X90.000 Y94.629 E9.13040
G1 X90.000 Y95.944 E9.25606
G1 X110.228 Y95.944 E11.19011
G1 X110.229 Y97.258 E11.31576
G1 X90.000 Y97.258 E13.24994
G1 X90.000 Y98.572 E13.37559
G1 X110.343 Y98.572 E15.32069
G1 X110.285 Y99.886 E15.44646
G1 X90.000 Y99.886 E17.38601
G1 X90.000 Y101.200 E17.51167
G1 X110.172 Y101.200 E19.44034
G1 X110.286 Y102.514 E19.56647
G1 X90.000 Y102.514 E21.50606
G1 X90.000 Y103.829 E21.63171
G1 X110.343 Y103.829 E23.57677
G1 X110.229 Y105.143 E23.70289
G1 X90.000 Y105.143 E25.63703
G1 X90.000 Y106.457 E25.76269
G1 X110.228 Y106.457 E27.69678
G1 X110.342 Y107.771 E27.82290
G1 X90.000 Y107.771 E29.76791
G1 X90.000 Y109.085 E29.89356
G1 X110.286 Y109.085 E31.83320
M106 S255
M140 S120 ; set bed temperature
G1 F1800.000 E30.83320
G92 E0
G1 Z0.750 F7800.000
G1 X110.000 Y108.200
G1 F1800.000 E1.00000
G1 X110.000 Y108.200 F600.000 E1.00002
G1 X110.000 Y107.800 F7800.000
G1 X110.000 Y107.800 F600.000 E1.00005
G1 X110.000 Y107.400 F7800.000
G1 X110.000 Y107.400 F600.000 E1.00007
G1 X110.000 Y107.000 F7800.000
G1 X110.000 Y107.000 F600.000 E1.00010
G1 X110.000 Y106.600 F7800.000
G1 X110.000 Y106.600 F600.000 E1.00012
G1 X110.000 Y106.200 F7800.000
G1 X110.000 Y106.200 F600.000 E1.00014
G1 X110.000 Y105.800 F7800.000
G1 X110.000 Y105.800 F600.000 E1.00017
G1 X110.000 Y105.400 F7800.000
G1 X110.000 Y105.400 F600.000 E1.00019
G1 X110.000 Y105.000 F7800.000
G1 X110.000 Y105.000 F600.000 E1.00022
G1 X110.000 Y104.600 F7800.000
G1 X110.000 Y104.600 F600.000 E1.00024
G1 X110.000 Y104.200 F7800.000
G1 X110.000 Y104.200 F600.000 E1.00026
G1 X110.000 Y103.800 F7800.000
G1 X110.000 Y103.800 F600.000 E1.00029
G1 X110.000 Y103.400 F7800.000
G1 X110.000 Y103.400 F600.000 E1.00031
G1 X110.000 Y103.000 F7800.000
G1 X110.000 Y103.000 F600.000 E1.00034
G1 X110.000 Y102.600 F7800.000
G1 X110.000 Y102.600 F600.000 E1.00036
G1 X110.000 Y102.200 F7800.000
G1 X110.000 Y102.200 F600.000 E1.00038
G1 X110.000 Y101.800 F7800.000
G1 X110.000 Y101.800 F600.000 E1.00041
G1 X110.000 Y101.400 F7800.000
G1 X110.000 Y101.400 F600.000 E1.00043
G1 X110.000 Y101.000 F7800.000
G1 X110.000 Y101.000 F600.000 E1.00046
G1 X110.000 Y100.600 F7800.000
G1 X110.000 Y100.600 F600.000 E1.00048
G1 X110.000 Y100.200 F7800.000
G1 X110.000 Y100.200 F600.000 E1.00050
G1 X110.000 Y99.800 F7800.000
G1 X110.000 Y99.800 F600.000 E1.00053
G1 X110.000 Y99.400 F7800.000
G1 X110.000 Y99.400 F600.000 E1.00055
G1 X110.000 Y99.000 F7800.000
G1 X110.000 Y99.000 F600.000 E1.00058
G1 X110.000 Y98.600 F7800.000
G1 X110.000 Y98.600 F600.000 E1.00060
G1 X110.000 Y98.200 F7800.000
G1 X110.000 Y98.200 F600.000 E1.00062
G1 X110.000 Y97.800 F7800.000
G1 X110.000 Y97.800 F600.000 E1.00065
G1 X110.000 Y97.400 F7800.000
G1 X110.000 Y97.400 F600.000 E1.00067
G1 X110.000 Y97.000 F7800.000
G1 X110.000 Y97.000 F600.000 E1.00070
G1 X110.000 Y96.600 F7800.000
G1 X110.000 Y96.600 F600.000 E1.00072
G1 X110.000 Y96.200 F7800.000
G1 X110.000 Y96.200 F600.000 E1.00074
G1 X110.000 Y95.800 F7800.000
G1 X110.000 Y95.800 F600.000 E1.00077
G1 X110.000 Y95.400 F7800.000
G1 X110.000 Y95.400 F600.000 E1.00079
G1 X110.000 Y95.000 F7800.000
G1 X110.000 Y95.000 F600.000 E1.00082
G1 X110.000 Y94.600 F7800.000
G1 X110.000 Y94.600 F600.000 E1.00084
G1 X110.000 Y94.200 F7800.000
G1 X110.000 Y94.200 F600.000 E1.00086
G1 X110.000 Y93.800 F7800.000
G1 X110.000 Y93.800 F600.000 E1.00089
G1 X110.000 Y93.400 F7800.000
G1 X110.000 Y93.400 F600.000 E1.00091
G1 X110.000 Y93.000 F7800.000
G1 X110.000 Y93.000 F600.000 E1.00094
G1 X110.000 Y92.600 F7800.000
G1 X110.000 Y92.600 F600.000 E1.00096
G1 X110.000 Y92.200 F7800.000
G1 X110.000 Y92.200 F600.000 E1.00098
G1 X110.000 Y91.800 F7800.000
G1 X110.000 Y91.800 F600.000 E1.00101
G1 F1800.000 E0.00101
G92 E0
G1 X107.500 Y91.186 F7800.000
G1 F1800.000 E1.00000
G1 X107.500 Y90.100 F600.000 E1.09389
G1 X105.000 Y90.000 E1.31010
G1 X105.000 Y93.686 E1.62865
G1 F1800.000 E0.62865
G92 E0
G1 X107.500 Y93.814 F7800.000
G1 F1800.000 E1.00000
G1 X107.500 Y106.186 F600.000 E2.06919
G1 F1800.000 E1.06919
G92 E0
G1 X105.000 Y106.314 F7800.000
G1 F1800.000 E1.00000
G1 X105.000 Y110.000 F600.000 E1.31857
G1 X102.500 Y109.900 E1.53478
G1 X102.500 Y103.814 E2.06074
G1 F1800.000 E1.06074
G92 E0
G1 X105.000 Y103.686 F7800.000
G1 F1800.000 E1.00000
G1 X105.000 Y96.314 F600.000 E1.63711
G1 F1800.000 E0.63711
G92 E0
G1 X102.500 Y96.186 F7800.000
G1 F1800.000 E1.00000
G1 X102.500 Y90.100 F600.000 E1.52596
G1 X100.000 Y90.200 E1.74218
G1 X100.000 Y98.686 E2.47554
G1 F1800.000 E1.47554
G92 E0
G1 X102.500 Y98.814 F7800.000
G1 F1800.000 E1.00000
G1 X102.500 Y101.186 F600.000 E1.20503
G1 F1800.000 E0.20503
G92 E0
G1 X100.000 Y101.314 F7800.000
G1 F1800.000 E1.00000
G1 X100.000 Y109.800 F600.000 E1.73336
G1 X97.500 Y109.900 E1.94957
G1 X97.500 Y103.814 E2.47554
G1 F1800.000 E1.47554
G92 E0
G1 X95.000 Y103.686 F7800.000
G1 F1800.000 E1.00000
G1 X95.000 Y96.314 F600.000 E1.63711
G1 F1800.000 E0.63711
G92 E0
G1 X97.500 Y96.186 F7800.000
G1 F1800.000 E1.00000
G1 X97.500 Y90.100 F600.000 E1.52596
G1 X95.000 Y90.000 E1.74218
G1 X95.000 Y93.686 E2.06073
G1 F1800.000 E1.06073
G92 E0
G1 X92.500 Y93.814 F7800.000
G1 F1800.000 E1.00000
G1 X92.500 Y106.186 F600.000 E2.06919
G1 X90.000 Y106.200 F7800.000
G1 X90.000 Y106.200 F600.000 E2.06921
G1 X90.000 Y106.600 F7800.000
G1 X90.000 Y106.600 F600.000 E2.06924
G1 X90.000 Y107.000 F7800.000
G1 X90.000 Y107.000 F600.000 E2.06926
G1 X90.000 Y107.400 F7800.000
G1 X90.000 Y107.400 F600.000 E2.06929
G1 X90.000 Y107.800 F7800.000
G1 X90.000 Y107.800 F600.000 E2.06931
G1 X90.000 Y108.200 F7800.000
G1 X90.000 Y108.200 F600.000 E2.06933
G1 X90.000 Y105.800 F7800.000
G1 X90.000 Y105.800 F600.000 E2.06936
G1 X90.000 Y105.400 F7800.000
G1 X90.000 Y105.400 F600.000 E2.06938
G1 X90.000 Y105.000 F7800.000
G1 X90.000 Y105.000 F600.000 E2.06941
G1 X90.000 Y104.600 F7800.000
G1 X90.000 Y104.600 F600.000 E2.06943
G1 X90.000 Y104.200 F7800.000
G1 X90.000 Y104.200 F600.000 E2.06946
G1 X90.000 Y103.800 F7800.000
G1 X90.000 Y103.800 F600.000 E2.06948
G1 X90.000 Y103.400 F7800.000
G1 X90.000 Y103.400 F600.000 E2.06951
G1 X90.000 Y103.000 F7800.000
G1 X90.000 Y103.000 F600.000 E2.06953
G1 X90.000 Y102.600 F7800.000
G1 X90.000 Y102.600 F600.000 E2.06956
G1 X90.000 Y102.200 F7800.000
G1 X90.000 Y102.200 F600.000 E2.06958
G1 X90.000 Y101.800 F7800.000
G1 X90.000 Y101.800 F600.000 E2.06960
G1 X90.000 Y101.400 F7800.000
G1 X90.000 Y101.400 F600.000 E2.06963
G1 X90.000 Y101.000 F7800.000
G1 X90.000 Y101.000 F600.000 E2.06965
G1 X90.000 Y100.600 F7800.000
G1 X90.000 Y100.600 F600.000 E2.06968
G1 X90.000 Y100.200 F7800.000
G1 X90.000 Y100.200 F600.000 E2.06970
G1 X90.000 Y99.800 F7800.000
G1 X90.000 Y99.800 F600.000 E2.06973
G1 X90.000 Y99.400 F7800.000
G1 X90.000 Y99.400 F600.000 E2.06975
G1 X90.000 Y99.000 F7800.000
G1 X90.000 Y99.000 F600.000 E2.06978
G1 X90.000 Y98.600 F7800.000
G1 X90.000 Y98.600 F600.000 E2.06980
G1 X90.000 Y98.200 F7800.000
G1 X90.000 Y98.200 F600.000 E2.06983
G1 X90.000 Y97.800 F7800.000
G1 X90.000 Y97.800 F600.000 E2.06985
G1 X90.000 Y97.400 F7800.000
G1 X90.000 Y97.400 F600.000 E2.06987
G1 X90.000 Y97.000 F7800.000
G1 X90.000 Y97.000 F600.000 E2.06990
G1 X90.000 Y96.600 F7800.000
G1 X90.000 Y96.600 F600.000 E2.06992
G1 X90.000 Y96.200 F7800.000
G1 X90.000 Y96.200 F600.000 E2.06995
G1 X90.000 Y95.800 F7800.000
G1 X90.000 Y95.800 F600.000 E2.06997
G1 X90.000 Y95.400 F7800.000
G1 X90.000 Y95.400 F600.000 E2.07000
G1 X90.000 Y95.000 F7800.000
G1 X90.000 Y95.000 F600.000 E2.07002
G1 X90.000 Y94.600 F7800.000
G1 X90.000 Y94.600 F600.000 E2.07005
G1 X90.000 Y94.200 F7800.000
G1 X90.000 Y94.200 F600.000 E2.07007
G1 X90.000 Y93.800 F7800.000
G1 X90.000 Y93.800 F600.000 E2.07010
G1 X90.000 Y93.400 F7800.000
G1 X90.000 Y93.400 F600.000 E2.07012
G1 X90.000 Y93.000 F7800.000
G1 X90.000 Y93.000 F600.000 E2.07015
G1 X90.000 Y92.600 F7800.000
G1 X90.000 Y92.600 F600.000 E2.07017
G1 X90.000 Y92.200 F7800.000
G1 X90.000 Y92.200 F600.000 E2.07019
G1 X90.000 Y91.800 F7800.000
G1 X90.000 Y91.800 F600.000 E2.07022
G1 F1800.000 E1.07022
G92 E0
G1 X91.455 Y90.142 F7800.000
G1 F1800.000 E1.00000
G1 X92.500 Y90.100 F600.000 E1.09035
G1 X92.500 Y91.186 E1.18423
G1 F1800.000 E0.18423
G92 E0
G1 X97.500 Y98.814 F7800.000
G1 F1800.000 E1.00000
G1 X97.500 Y101.186 F600.000 E1.20503
G1 F1800.000 E0.20503
G92 E0
G1 X95.000 Y106.314 F7800.000
G1 F1800.000 E1.00000
G1 X95.000 Y110.000 F600.000 E1.31857
G1 X92.500 Y109.900 E1.53478
G1 X92.500 Y108.814 E1.62866
G1 F1800.000 E0.62866
G92 E0
G1 X107.500 Y108.814 F7800.000
G1 F1800.000 E1.00000
G1 X107.500 Y109.900 F600.000 E1.09389
G1 X108.545 Y109.858 E1.18423
G1 F1800.000 E0.18423
G92 E0
G1 X96.109 Y96.109 F7800.000
G1 F1800.000 E1.00000
G1 X100.000 Y100.000 F600.000 E1.47547
G1 X109.781 Y90.219 E2.67074
G1 F1800.000 E1.67074
G92 E0
G1 X100.000 Y100.000 F7800.000
G1 F1800.000 E1.00000
G1 X100.562 Y100.562 F600.000 E1.06871
G1 X100.562 Y100.562 F7800.000
G1 X102.226 Y102.226 F600.000 E1.27209
G1 X102.226 Y102.226 F7800.000
G1 X103.151 Y103.151 F600.000 E1.38508
G1 X103.151 Y103.151 F7800.000
G1 X109.781 Y109.781 F600.000 E2.19528
G1 F1800.000 E1.19528
G92 E0
G1 X100.000 Y100.000 F7800.000
G1 F1800.000 E1.00000
G1 X93.151 Y106.849 F600.000 E1.83702
G1 X93.151 Y106.849 F7800.000
G1 X92.226 Y107.774 F600.000 E1.95001
G1 X92.226 Y107.774 F7800.000
G1 X92.042 Y107.958 F600.000 E1.97261
G1 X92.042 Y107.958 F7800.000
G1 X90.747 Y109.253 F600.000 E2.13079
G1 X90.747 Y109.253 F7800.000
G1 X90.377 Y109.623 F600.000 E2.17598
G1 X90.377 Y109.623 F7800.000
G1 X90.219 Y109.781 F600.000 E2.19528
G1 F1800.000 E1.19528
G92 E0
G1 X96.109 Y96.109 F7800.000
G1 F1800.000 E1.00000
G1 X94.260 Y94.260 F600.000 E1.22597
G1 X94.260 Y94.260 F7800.000
G1 X93.521 Y93.521 F600.000 E1.31636
G1 X93.521 Y93.521 F7800.000
G1 X92.781 Y92.781 F600.000 E1.40675
G1 X92.781 Y92.781 F7800.000
G1 X91.672 Y91.672 F600.000 E1.54234
G1 X91.672 Y91.672 F7800.000
G1 X90.747 Y90.747 F600.000 E1.65532
G1 X90.747 Y90.747 F7800.000
G1 X90.377 Y90.377 F600.000 E1.70052
G1 X90.377 Y90.377 F7800.000
G1 X90.219 Y90.219 F600.000 E1.71981
G1 F1800.000 E0.71981
G92 E0
G1 Z1.150 F7800.000
G1 X91.840 Y90.126
G1 F1800.000 E1.00000
G1 X92.500 Y90.100 F600.000 E1.05708
G1 X92.500 Y90.786 E1.11640
G1 F1800.000 E0.11640
G92 E0
G1 X90.000 Y92.200 F7800.000
G1 F1800.000 E1.00000
G1 X90.000 Y92.200 F600.000 E1.00002
G1 X90.000 Y92.600 F7800.000
G1 X90.000 Y92.600 F600.000 E1.00005
G1 X90.000 Y93.000 F7800.000
G1 X90.000 Y93.000 F600.000 E1.00007
G1 X90.000 Y93.400 F7800.000
G1 X90.000 Y93.400 F600.000 E1.00010
G1 X90.000 Y93.800 F7800.000
G1 X90.000 Y93.800 F600.000 E1.00012
G1 X90.000 Y94.200 F7800.000
G1 X90.000 Y94.200 F600.000 E1.00015
G1 X90.000 Y94.600 F7800.000
G1 X90.000 Y94.600 F600.000 E1.00017
G1 X90.000 Y95.000 F7800.000
G1 X90.000 Y95.000 F600.000 E1.00020
G1 X90.000 Y95.400 F7800.000
G1 X90.000 Y95.400 F600.000 E1.00022
G1 X90.000 Y95.800 F7800.000
G1 X90.000 Y95.800 F600.000 E1.00025
G1 X90.000 Y96.200 F7800.000
G1 X90.000 Y96.200 F600.000 E1.00027
G1 X90.000 Y96.600 F7800.000
G1 X90.000 Y96.600 F600.000 E1.00030
G1 X90.000 Y97.000 F7800.000
G1 X90.000 Y97.000 F600.000 E1.00032
G1 X90.000 Y97.400 F7800.000
G1 X90.000 Y97.400 F600.000 E1.00034
G1 X90.000 Y97.800 F7800.000
G1 X90.000 Y97.800 F600.000 E1.00037
G1 X90.000 Y98.200 F7800.000
G1 X90.000 Y98.200 F600.000 E1.00039
G1 X90.000 Y98.600 F7800.000
G1 X90.000 Y98.600 F600.000 E1.00042
G1 X90.000 Y99.000 F7800.000
G1 X90.000 Y99.000 F600.000 E1.00044
G1 X90.000 Y99.400 F7800.000
G1 X90.000 Y99.400 F600.000 E1.00047
G1 X90.000 Y99.800 F7800.000
G1 X90.000 Y99.800 F600.000 E1.00049
G1 X90.000 Y100.200 F7800.000
G1 X90.000 Y100.200 F600.000 E1.00052
G1 X90.000 Y100.600 F7800.000
G1 X90.000 Y100.600 F600.000 E1.00054
G1 X90.000 Y101.000 F7800.000
G1 X90.000 Y101.000 F600.000 E1.00057
G1 X90.000 Y101.400 F7800.000
G1 X90.000 Y101.400 F600.000 E1.00059
G1 X90.000 Y101.800 F7800.000
G1 X90.000 Y101.800 F600.000 E1.00062
G1 X90.000 Y102.200 F7800.000
G1 X90.000 Y102.200 F600.000 E1.00064
G1 X90.000 Y102.600 F7800.000
G1 X90.000 Y102.600 F600.000 E1.00066
G1 X90.000 Y103.000 F7800.000
G1 X90.000 Y103.000 F600.000 E1.00069
G1 X90.000 Y103.400 F7800.000
G1 X90.000 Y103.400 F600.000 E1.00071
G1 X90.000 Y103.800 F7800.000
G1 X90.000 Y103.800 F600.000 E1.00074
G1 X90.000 Y104.200 F7800.000
G1 X90.000 Y104.200 F600.000 E1.00076
G1 X90.000 Y104.600 F7800.000
G1 X90.000 Y104.600 F600.000 E1.00079
G1 X90.000 Y105.000 F7800.000
G1 X90.000 Y105.000 F600.000 E1.00081
G1 X90.000 Y105.400 F7800.000
G1 X90.000 Y105.400 F600.000 E1.00084
G1 X90.000 Y105.800 F7800.000
G1 X90.000 Y105.800 F600.000 E1.00086
G1 X90.000 Y106.200 F7800.000
G1 X90.000 Y106.200 F600.000 E1.00089
G1 X90.000 Y106.600 F7800.000
G1 X90.000 Y106.600 F600.000 E1.00091
G1 X90.000 Y107.000 F7800.000
G1 X90.000 Y107.000 F600.000 E1.00093
G1 X90.000 Y107.400 F7800.000
G1 X90.000 Y107.400 F600.000 E1.00096
G1 X90.000 Y107.800 F7800.000
G1 X90.000 Y107.800 F600.000 E1.00098
G1 F1800.000 E0.00098
G92 E0
G1 X92.500 Y109.214 F7800.000
G1 F1800.000 E1.00000
G1 X92.500 Y109.900 F600.000 E1.05932
G1 X95.000 Y110.000 E1.27553
G1 X95.000 Y106.714 E1.55953
G1 F1800.000 E0.55953
G92 E0
G1 X92.500 Y105.786 F7800.000
G1 F1800.000 E1.00000
G1 X92.500 Y94.214 F600.000 E2.00005
G1 F1800.000 E1.00005
G92 E0
G1 X95.000 Y93.286 F7800.000
G1 F1800.000 E1.00000
G1 X95.000 Y90.000 F600.000 E1.28399
G1 X97.500 Y90.100 E1.50020
G1 X97.500 Y95.786 E1.99160
G1 F1800.000 E0.99160
G92 E0
G1 X95.000 Y96.714 F7800.000
G1 F1800.000 E1.00000
G1 X95.000 Y103.286 F600.000 E1.56798
G1 F1800.000 E0.56798
G92 E0
G1 X97.500 Y104.214 F7800.000
G1 F1800.000 E1.00000
G1 X97.500 Y109.900 F600.000 E1.49140
