; generated by Slic3r 0.9.10b on 2013-10-14 at 22:39:50

; layer_height = 0.35
; perimeters = 3
; top_solid_layers = 2
; bottom_solid_layers = 2
; fill_density = 0.1
; perimeter_speed = 30
; infill_speed = 60
; travel_speed = 130
; nozzle_diameter = 0.5
; filament_diameter = 1.75
; extrusion_multiplier = 1
; perimeters extrusion width = 0.58mm
; infill extrusion width = 0.58mm
; solid infill extrusion width = 0.58mm
; top infill extrusion width = 0.58mm
; support material extrusion width = 0.58mm
; first layer extrusion width = 0.70mm

G21 ; set units to millimeters
M106 S0
M140 S130 ; set bed temperature
M116 ; wait for bed temperature to be reached
M104 S220 ; set temperature
G28 ; home all axes
G1 Z5 F5000 ; lift nozzle
M104 S220 ; set temperature
M116 ; wait for temperature to be reached
G90 ; use absolute coordinates
G92 E0
M82 ; use absolute distances for extrusion
G1 F1800.000 E-1.00000
G92 E0
G1 Z0.350 F7800.000
G1 X80.290 Y80.660
G1 F1800.000 E1.00000
G1 X81.300 Y79.830 F540.000 E1.12499
G1 X82.450 Y79.220 E1.24946
G1 X83.700 Y78.840 E1.37438
G1 X85.000 Y78.710 E1.49930
G1 X115.350 Y78.710 E4.40117
G1 X116.640 Y78.840 E4.52514
G1 X117.880 Y79.210 E4.64887
G1 X119.020 Y79.820 E4.77249
G1 X120.030 Y80.640 E4.89688
G1 X120.860 Y81.630 E5.02040
G1 X121.480 Y82.770 E5.14448
G1 X121.870 Y84.010 E5.26876
G1 X122.010 Y85.290 E5.39188
G1 X122.040 Y87.920 E5.64336
G1 X122.050 Y111.780 E7.92470
G1 X122.000 Y114.410 E8.17621
G1 X121.850 Y115.690 E8.29944
G1 X121.450 Y116.910 E8.42219
G1 X120.830 Y118.040 E8.54543
G1 X120.000 Y119.030 E8.66896
G1 X119.000 Y119.840 E8.79200
G1 X117.860 Y120.440 E8.91517
G1 X116.620 Y120.810 E9.03890
G1 X115.340 Y120.940 E9.16192
G1 X85.000 Y120.940 E12.06284
G1 X83.700 Y120.810 E12.18775
G1 X82.450 Y120.430 E12.31267
G1 X81.300 Y119.820 E12.43714
G1 X80.290 Y118.990 E12.56213
G1 X79.460 Y117.980 E12.68713
G1 X78.850 Y116.830 E12.81159
G1 X78.470 Y115.580 E12.93651
G1 X78.340 Y114.280 E13.06143
G1 X78.340 Y85.370 E15.82562
G1 X78.470 Y84.070 E15.95054
G1 X78.850 Y82.820 E16.07546
G1 X79.460 Y81.670 E16.19992
G1 X80.227 Y80.736 E16.31549
G1 F1800.000 E15.31549
G92 E0
G1 X85.000 Y85.373 F7800.000
G1 F1800.000 E1.00000
G1 X115.357 Y85.373 F1080.000 E3.90254
G1 X115.296 Y86.687 E4.02832
G1 X85.000 Y86.687 E6.92505
G1 X85.000 Y88.002 E7.05070
G1 X115.382 Y88.002 E9.95563
G1 X115.368 Y89.316 E10.08129
G1 X85.000 Y89.316 E12.98487
G1 X85.000 Y90.630 E13.11052
G1 X115.364 Y90.630 E16.01370
G1 X115.290 Y91.944 E16.13955
G1 X85.000 Y91.944 E19.03564
G1 X85.000 Y93.258 E19.16129
G1 X115.375 Y93.258 E22.06559
G1 X115.361 Y94.572 E22.19125
G1 X85.000 Y94.572 E25.09419
G1 X85.000 Y95.887 E25.21984
G1 X115.370 Y95.887 E28.12365
G1 X115.284 Y97.201 E28.24957
G1 X85.000 Y97.201 E31.14517
G1 X85.000 Y98.515 E31.27082
G1 X115.369 Y98.515 E34.17448
G1 X115.363 Y99.829 E34.30014
G1 X85.000 Y99.829 E37.20322
G1 X85.000 Y101.143 E37.32888
G1 X115.377 Y101.143 E40.23332
G1 X115.291 Y102.457 E40.35924
G1 X85.000 Y102.457 E43.25547
G1 X85.000 Y103.772 E43.38112
G1 X115.362 Y103.772 E46.28415
G1 X115.369 Y105.086 E46.40980
G1 X85.000 Y105.086 E49.31353
G1 X85.000 Y106.400 E49.43918
G1 X115.383 Y106.400 E52.34425
G1 X115.298 Y107.714 E52.47017
G1 X85.000 Y107.714 E55.36704
G1 X85.000 Y109.028 E55.49269
G1 X115.355 Y109.028 E58.39509
G1 X115.376 Y110.342 E58.52075
G1 X85.000 Y110.342 E61.42511
G1 X85.000 Y111.656 E61.55076
G1 X115.390 Y111.656 E64.45647
G1 X115.304 Y112.971 E64.58239
G1 X85.000 Y112.971 E67.47989
G1 X85.000 Y114.285 E67.60555
G1 X115.349 Y114.285 E70.50731
M106 S255
M140 S120 ; set bed temperature
G1 F1800.000 E69.50731
G92 E0
G1 Z0.700 F7800.000
G1 X115.000 Y113.525
G1 F1800.000 E1.00000
G1 X115.000 Y113.525 F925.411 E1.00002
G1 X115.000 Y113.425 F7800.000
G1 X115.000 Y113.425 F925.411 E1.00005
G1 X115.000 Y113.175 F7800.000
G1 X115.000 Y113.175 F925.411 E1.00007
G1 X115.000 Y113.075 F7800.000
G1 X115.000 Y113.075 F925.411 E1.00009
G1 X115.000 Y112.825 F7800.000
G1 X115.000 Y112.825 F925.411 E1.00011
G1 X115.000 Y112.725 F7800.000
G1 X115.000 Y112.725 F925.411 E1.00014
G1 X115.000 Y112.475 F7800.000
G1 X115.000 Y112.475 F925.411 E1.00016
G1 X115.000 Y112.375 F7800.000
G1 X115.000 Y112.375 F925.411 E1.00018
G1 X115.000 Y112.125 F7800.000
G1 X115.000 Y112.125 F925.411 E1.00020
G1 X115.000 Y112.025 F7800.000
G1 X115.000 Y112.025 F925.411 E1.00023
G1 X115.000 Y111.775 F7800.000
G1 X115.000 Y111.775 F925.411 E1.00025
G1 X115.000 Y111.675 F7800.000
G1 X115.000 Y111.675 F925.411 E1.00027
G1 X115.000 Y111.425 F7800.000
G1 X115.000 Y111.425 F925.411 E1.00030
G1 X115.000 Y111.325 F7800.000
G1 X115.000 Y111.325 F925.411 E1.00032
G1 X115.000 Y111.075 F7800.000
G1 X115.000 Y111.075 F925.411 E1.00034
G1 X115.000 Y110.975 F7800.000
G1 X115.000 Y110.975 F925.411 E1.00036
G1 X115.000 Y110.725 F7800.000
G1 X115.000 Y110.725 F925.411 E1.00039
G1 X115.000 Y110.625 F7800.000
G1 X115.000 Y110.625 F925.411 E1.00041
G1 X115.000 Y110.375 F7800.000
G1 X115.000 Y110.375 F925.411 E1.00043
G1 X115.000 Y110.275 F7800.000
G1 X115.000 Y110.275 F925.411 E1.00045
G1 X115.000 Y110.025 F7800.000
G1 X115.000 Y110.025 F925.411 E1.00048
G1 X115.000 Y109.925 F7800.000
G1 X115.000 Y109.925 F925.411 E1.00050
G1 X115.000 Y109.675 F7800.000
G1 X115.000 Y109.675 F925.411 E1.00052
G1 X115.000 Y109.575 F7800.000
G1 X115.000 Y109.575 F925.411 E1.00054
G1 X115.000 Y109.325 F7800.000
G1 X115.000 Y109.325 F925.411 E1.00057
G1 X115.000 Y109.225 F7800.000
G1 X115.000 Y109.225 F925.411 E1.00059
G1 X115.000 Y108.975 F7800.000
G1 X115.000 Y108.975 F925.411 E1.00061
G1 X115.000 Y108.875 F7800.000
G1 X115.000 Y108.875 F925.411 E1.00064
G1 X115.000 Y108.625 F7800.000
G1 X115.000 Y108.625 F925.411 E1.00066
G1 X115.000 Y108.525 F7800.000
G1 X115.000 Y108.525 F925.411 E1.00068
G1 X115.000 Y108.275 F7800.000
G1 X115.000 Y108.275 F925.411 E1.00070
G1 X115.000 Y108.175 F7800.000
G1 X115.000 Y108.175 F925.411 E1.00073
G1 X115.000 Y107.925 F7800.000
G1 X115.000 Y107.925 F925.411 E1.00075
G1 X115.000 Y107.825 F7800.000
G1 X115.000 Y107.825 F925.411 E1.00077
G1 X115.000 Y107.575 F7800.000
G1 X115.000 Y107.575 F925.411 E1.00079
G1 X115.000 Y107.475 F7800.000
G1 X115.000 Y107.475 F925.411 E1.00082
G1 X115.000 Y107.225 F7800.000
G1 X115.000 Y107.225 F925.411 E1.00084
G1 X115.000 Y107.125 F7800.000
G1 X115.000 Y107.125 F925.411 E1.00086
G1 X115.000 Y106.875 F7800.000
G1 X115.000 Y106.875 F925.411 E1.00089
G1 X115.000 Y106.775 F7800.000
G1 X115.000 Y106.775 F925.411 E1.00091
G1 X115.000 Y106.525 F7800.000
G1 X115.000 Y106.525 F925.411 E1.00093
G1 X115.000 Y106.425 F7800.000
G1 X115.000 Y106.425 F925.411 E1.00095
G1 X115.000 Y106.175 F7800.000
G1 X115.000 Y106.175 F925.411 E1.00098
G1 X115.000 Y106.075 F7800.000
G1 X115.000 Y106.075 F925.411 E1.00100
G1 X115.000 Y105.825 F7800.000
G1 X115.000 Y105.825 F925.411 E1.00102
G1 X115.000 Y105.725 F7800.000
G1 X115.000 Y105.725 F925.411 E1.00104
G1 X115.000 Y105.475 F7800.000
G1 X115.000 Y105.475 F925.411 E1.00107
G1 X115.000 Y105.375 F7800.000
G1 X115.000 Y105.375 F925.411 E1.00109
G1 X115.000 Y105.125 F7800.000
G1 X115.000 Y105.125 F925.411 E1.00111
G1 X115.000 Y105.025 F7800.000
G1 X115.000 Y105.025 F925.411 E1.00113
G1 X115.000 Y104.775 F7800.000
G1 X115.000 Y104.775 F925.411 E1.00116
G1 X115.000 Y104.675 F7800.000
G1 X115.000 Y104.675 F925.411 E1.00118
G1 X115.000 Y104.425 F7800.000
G1 X115.000 Y104.425 F925.411 E1.00120
G1 X115.000 Y104.325 F7800.000
G1 X115.000 Y104.325 F925.411 E1.00123
G1 X115.000 Y104.075 F7800.000
G1 X115.000 Y104.075 F925.411 E1.00125
G1 X115.000 Y103.975 F7800.000
G1 X115.000 Y103.975 F925.411 E1.00127
G1 X115.000 Y103.725 F7800.000
G1 X115.000 Y103.725 F925.411 E1.00129
G1 X115.000 Y103.625 F7800.000
G1 X115.000 Y103.625 F925.411 E1.00132
G1 X115.000 Y103.375 F7800.000
G1 X115.000 Y103.375 F925.411 E1.00134
G1 X115.000 Y103.275 F7800.000
G1 X115.000 Y103.275 F925.411 E1.00136
G1 X115.000 Y103.025 F7800.000
G1 X115.000 Y103.025 F925.411 E1.00138
G1 X115.000 Y102.925 F7800.000
G1 X115.000 Y102.925 F925.411 E1.00141
G1 X115.000 Y102.675 F7800.000
G1 X115.000 Y102.675 F925.411 E1.00143
G1 X115.000 Y102.575 F7800.000
G1 X115.000 Y102.575 F925.411 E1.00145
G1 X115.000 Y102.325 F7800.000
G1 X115.000 Y102.325 F925.411 E1.00148
G1 X115.000 Y102.225 F7800.000
G1 X115.000 Y102.225 F925.411 E1.00150
G1 X115.000 Y101.975 F7800.000
G1 X115.000 Y101.975 F925.411 E1.00152
G1 X115.000 Y101.875 F7800.000
G1 X115.000 Y101.875 F925.411 E1.00154
G1 X115.000 Y101.625 F7800.000
G1 X115.000 Y101.625 F925.411 E1.00157
G1 X115.000 Y101.525 F7800.000
G1 X115.000 Y101.525 F925.411 E1.00159
G1 X115.000 Y101.275 F7800.000
G1 X115.000 Y101.275 F925.411 E1.00161
G1 X115.000 Y101.175 F7800.000
G1 X115.000 Y101.175 F925.411 E1.00163
G1 X115.000 Y100.925 F7800.000
G1 X115.000 Y100.925 F925.411 E1.00166
G1 X115.000 Y100.825 F7800.000
G1 X115.000 Y100.825 F925.411 E1.00168
G1 X115.000 Y100.575 F7800.000
G1 X115.000 Y100.575 F925.411 E1.00170
G1 X115.000 Y100.475 F7800.000
G1 X115.000 Y100.475 F925.411 E1.00173
G1 X115.000 Y100.225 F7800.000
G1 X115.000 Y100.225 F925.411 E1.00175
G1 X115.000 Y100.125 F7800.000
G1 X115.000 Y100.125 F925.411 E1.00177
G1 X115.000 Y99.875 F7800.000
G1 X115.000 Y99.875 F925.411 E1.00179
G1 X115.000 Y99.775 F7800.000
G1 X115.000 Y99.775 F925.411 E1.00182
G1 X115.000 Y99.525 F7800.000
G1 X115.000 Y99.525 F925.411 E1.00184
G1 X115.000 Y99.425 F7800.000
G1 X115.000 Y99.425 F925.411 E1.00186
G1 X115.000 Y99.175 F7800.000
G1 X115.000 Y99.175 F925.411 E1.00188
G1 X115.000 Y99.075 F7800.000
G1 X115.000 Y99.075 F925.411 E1.00191
G1 X115.000 Y98.825 F7800.000
G1 X115.000 Y98.825 F925.411 E1.00193
G1 X115.000 Y98.725 F7800.000
G1 X115.000 Y98.725 F925.411 E1.00195
G1 X115.000 Y98.475 F7800.000
G1 X115.000 Y98.475 F925.411 E1.00198
G1 X115.000 Y98.375 F7800.000
G1 X115.000 Y98.375 F925.411 E1.00200
G1 X115.000 Y98.125 F7800.000
G1 X115.000 Y98.125 F925.411 E1.00202
G1 X115.000 Y98.025 F7800.000
G1 X115.000 Y98.025 F925.411 E1.00204
G1 X115.000 Y97.775 F7800.000
G1 X115.000 Y97.775 F925.411 E1.00207
G1 X115.000 Y97.675 F7800.000
G1 X115.000 Y97.675 F925.411 E1.00209
G1 X115.000 Y97.425 F7800.000
G1 X115.000 Y97.425 F925.411 E1.00211
G1 X115.000 Y97.325 F7800.000
G1 X115.000 Y97.325 F925.411 E1.00213
G1 X115.000 Y97.075 F7800.000
G1 X115.000 Y97.075 F925.411 E1.00216
G1 X115.000 Y96.975 F7800.000
G1 X115.000 Y96.975 F925.411 E1.00218
G1 X115.000 Y96.725 F7800.000
G1 X115.000 Y96.725 F925.411 E1.00220
G1 X115.000 Y96.625 F7800.000
G1 X115.000 Y96.625 F925.411 E1.00223
G1 X115.000 Y96.375 F7800.000
G1 X115.000 Y96.375 F925.411 E1.00225
G1 X115.000 Y96.275 F7800.000
G1 X115.000 Y96.275 F925.411 E1.00227
G1 X115.000 Y96.025 F7800.000
G1 X115.000 Y96.025 F925.411 E1.00229
G1 X115.000 Y95.925 F7800.000
G1 X115.000 Y95.925 F925.411 E1.00232
G1 X115.000 Y95.675 F7800.000
G1 X115.000 Y95.675 F925.411 E1.00234
G1 X115.000 Y95.575 F7800.000
G1 X115.000 Y95.575 F925.411 E1.00236
G1 X115.000 Y95.325 F7800.000
G1 X115.000 Y95.325 F925.411 E1.00238
G1 X115.000 Y95.225 F7800.000
G1 X115.000 Y95.225 F925.411 E1.00241
G1 X115.000 Y94.975 F7800.000
G1 X115.000 Y94.975 F925.411 E1.00243
G1 X115.000 Y94.875 F7800.000
G1 X115.000 Y94.875 F925.411 E1.00245
G1 X115.000 Y94.625 F7800.000
G1 X115.000 Y94.625 F925.411 E1.00248
G1 X115.000 Y94.525 F7800.000
G1 X115.000 Y94.525 F925.411 E1.00250
G1 X115.000 Y94.275 F7800.000
G1 X115.000 Y94.275 F925.411 E1.00252
G1 X115.000 Y94.175 F7800.000
G1 X115.000 Y94.175 F925.411 E1.00254
G1 X115.000 Y93.925 F7800.000
G1 X115.000 Y93.925 F925.411 E1.00257
G1 X115.000 Y93.825 F7800.000
G1 X115.000 Y93.825 F925.411 E1.00259
G1 X115.000 Y93.575 F7800.000
G1 X115.000 Y93.575 F925.411 E1.00261
G1 X115.000 Y93.475 F7800.000
G1 X115.000 Y93.475 F925.411 E1.00263
G1 X115.000 Y93.225 F7800.000
G1 X115.000 Y93.225 F925.411 E1.00266
G1 X115.000 Y93.125 F7800.000
G1 X115.000 Y93.125 F925.411 E1.00268
G1 X115.000 Y92.875 F7800.000
G1 X115.000 Y92.875 F925.411 E1.00270
G1 X115.000 Y92.775 F7800.000
G1 X115.000 Y92.775 F925.411 E1.00273
G1 X115.000 Y92.525 F7800.000
G1 X115.000 Y92.525 F925.411 E1.00275
G1 X115.000 Y92.425 F7800.000
G1 X115.000 Y92.425 F925.411 E1.00277
G1 X115.000 Y92.175 F7800.000
G1 X115.000 Y92.175 F925.411 E1.00279
G1 X115.000 Y92.075 F7800.000
G1 X115.000 Y92.075 F925.411 E1.00282
G1 X115.000 Y91.825 F7800.000
G1 X115.000 Y91.825 F925.411 E1.00284
G1 X115.000 Y91.725 F7800.000
G1 X115.000 Y91.725 F925.411 E1.00286
G1 X115.000 Y91.475 F7800.000
G1 X115.000 Y91.475 F925.411 E1.00288
G1 X115.000 Y91.375 F7800.000
G1 X115.000 Y91.375 F925.411 E1.00291
G1 X115.000 Y91.125 F7800.000
G1 X115.000 Y91.125 F925.411 E1.00293
G1 X115.000 Y91.025 F7800.000
G1 X115.000 Y91.025 F925.411 E1.00295
G1 X115.000 Y90.775 F7800.000
G1 X115.000 Y90.775 F925.411 E1.00298
G1 X115.000 Y90.675 F7800.000
G1 X115.000 Y90.675 F925.411 E1.00300
G1 X115.000 Y90.425 F7800.000
G1 X115.000 Y90.425 F925.411 E1.00302
G1 X115.000 Y90.325 F7800.000
G1 X115.000 Y90.325 F925.411 E1.00304
G1 X115.000 Y90.075 F7800.000
G1 X115.000 Y90.075 F925.411 E1.00307
G1 X115.000 Y89.975 F7800.000
G1 X115.000 Y89.975 F925.411 E1.00309
G1 X115.000 Y89.725 F7800.000
G1 X115.000 Y89.725 F925.411 E1.00311
G1 X115.000 Y89.625 F7800.000
G1 X115.000 Y89.625 F925.411 E1.00313
G1 X115.000 Y89.375 F7800.000
G1 X115.000 Y89.375 F925.411 E1.00316
G1 X115.000 Y89.275 F7800.000
G1 X115.000 Y89.275 F925.411 E1.00318
G1 X115.000 Y89.025 F7800.000
G1 X115.000 Y89.025 F925.411 E1.00320
G1 X115.000 Y88.925 F7800.000
G1 X115.000 Y88.925 F925.411 E1.00322
G1 X115.000 Y88.675 F7800.000
G1 X115.000 Y88.675 F925.411 E1.00325
G1 X115.000 Y88.575 F7800.000
G1 X115.000 Y88.575 F925.411 E1.00327
G1 X115.000 Y88.325 F7800.000
G1 X115.000 Y88.325 F925.411 E1.00329
G1 X115.000 Y88.225 F7800.000
G1 X115.000 Y88.225 F925.411 E1.00332
G1 X115.000 Y87.975 F7800.000
G1 X115.000 Y87.975 F925.411 E1.00334
G1 X115.000 Y87.875 F7800.000
G1 X115.000 Y87.875 F925.411 E1.00336
G1 X115.000 Y87.625 F7800.000
G1 X115.000 Y87.625 F925.411 E1.00338
G1 X115.000 Y87.525 F7800.000
G1 X115.000 Y87.525 F925.411 E1.00341
G1 X115.000 Y87.275 F7800.000
G1 X115.000 Y87.275 F925.411 E1.00343
G1 X115.000 Y87.175 F7800.000
G1 X115.000 Y87.175 F925.411 E1.00345
G1 X115.000 Y86.925 F7800.000
G1 X115.000 Y86.925 F925.411 E1.00347
G1 X115.000 Y86.825 F7800.000
G1 X115.000 Y86.825 F925.411 E1.00350
G1 X115.000 Y86.575 F7800.000
G1 X115.000 Y86.575 F925.411 E1.00352
G1 X115.000 Y86.475 F7800.000
G1 X115.000 Y86.475 F925.411 E1.00354
G1 F1800.000 E0.00354
G92 E0
G1 X112.500 Y86.100 F7800.000
G1 F1800.000 E1.00000
G1 X112.500 Y85.025 F925.411 E1.08773
G1 X110.000 Y85.025 E1.29181
G1 X110.000 Y88.600 E1.58363
G1 F1800.000 E0.58363
G92 E0
G1 X112.500 Y88.900 F7800.000
G1 F1800.000 E1.00000
G1 X112.500 Y111.100 F925.411 E2.81218
G1 F1800.000 E1.81218
G92 E0
G1 X110.000 Y111.400 F7800.000
G1 F1800.000 E1.00000
G1 X110.000 Y114.975 F925.411 E1.29181
G1 X107.500 Y114.975 E1.49590
G1 X107.500 Y108.900 E1.99179
G1 F1800.000 E0.99179
G92 E0
G1 X110.000 Y108.600 F7800.000
G1 F1800.000 E1.00000
G1 X110.000 Y91.400 F925.411 E2.40401
G1 F1800.000 E1.40401
G92 E0
G1 X107.500 Y91.100 F7800.000
G1 F1800.000 E1.00000
G1 X107.500 Y85.025 F925.411 E1.49590
G1 X105.000 Y85.025 E1.69998
G1 X105.000 Y93.600 E2.39995
G1 F1800.000 E1.39995
G92 E0
G1 X107.500 Y93.900 F7800.000
G1 F1800.000 E1.00000
G1 X107.500 Y106.100 F925.411 E1.99585
G1 F1800.000 E0.99585
G92 E0
G1 X105.000 Y106.400 F7800.000
G1 F1800.000 E1.00000
G1 X105.000 Y114.975 F925.411 E1.69998
G1 X102.500 Y114.925 E1.90410
G1 X102.500 Y103.900 E2.80408
G1 F1800.000 E1.80408
G92 E0
G1 X105.000 Y103.600 F7800.000
G1 F1800.000 E1.00000
G1 X105.000 Y96.400 F925.411 E1.58769
G1 F1800.000 E0.58769
G92 E0
G1 X102.500 Y96.100 F7800.000
G1 F1800.000 E1.00000
G1 X102.500 Y85.075 F925.411 E1.89998
G1 X100.000 Y85.125 E2.10410
G1 X100.000 Y98.600 E3.20408
G1 F1800.000 E2.20408
G92 E0
G1 X102.500 Y98.900 F7800.000
G1 F1800.000 E1.00000
G1 X102.500 Y101.100 F925.411 E1.17952
G1 F1800.000 E0.17952
G92 E0
G1 X100.000 Y101.400 F7800.000
G1 F1800.000 E1.00000
